public/medias/icons/NextJS.svg

<svg xmlns="http://www.w3.org/2000/svg" xmlns:xlink="http://www.w3.org/1999/xlink" width="800px" height="800px" viewBox="0 -101.5 512 512" version="1.1" preserveAspectRatio="xMidYMid"><g><path d="M120.81043,80.5613102 L217.378325,80.5613102 L217.378325,88.2366589 L129.662487,88.2366589 L129.662487,146.003758 L212.147564,146.003758 L212.147564,153.679106 L129.662487,153.679106 L129.662487,217.101725 L218.384241,217.101725 L218.384241,224.777073 L120.81043,224.777073 L120.81043,80.5613102 Z M226.0292,80.5613102 L236.289538,80.5613102 L281.756922,143.983929 L328.230222,80.5613102 L391.441486,0 L287.591232,150.649363 L341.105941,224.777073 L330.443237,224.777073 L281.756922,157.314798 L232.869425,224.777073 L222.407904,224.777073 L276.324978,150.649363 L226.0292,80.5613102 Z M344.928421,88.2366588 L344.928421,80.5613102 L454.975585,80.5613102 L454.975585,88.2366589 L404.27744,88.2366589 L404.27744,224.777073 L395.425382,224.777073 L395.425382,88.2366589 L344.928421,88.2366588 Z M1.42108547e-14,80.5613102 L11.0650714,80.5613102 L163.64593,308.884007 L100.591558,224.777073 L9.25442331,91.4683847 L8.85205708,224.777073 L1.42108547e-14,224.777073 L1.42108547e-14,80.5613102 Z M454.083705,214.785469 C452.275167,214.785469 450.918762,213.38418 450.918762,211.573285 C450.918762,209.762388 452.275167,208.361099 454.083705,208.361099 C455.913774,208.361099 457.248648,209.762388 457.248648,211.573285 C457.248648,213.38418 455.913774,214.785469 454.083705,214.785469 Z M462.781915,206.334618 L467.518563,206.334618 C467.583153,208.900055 469.456284,210.624719 472.212151,210.624719 C475.290972,210.624719 477.03492,208.770705 477.03492,205.29982 L477.03492,183.310363 L481.85769,183.310363 L481.85769,205.321379 C481.85769,211.573285 478.240613,215.173518 472.255212,215.173518 C466.635824,215.173518 462.781915,211.681076 462.781915,206.334618 Z M488.166045,206.054362 L492.945754,206.054362 C493.354828,209.007848 496.239878,210.883419 500.395211,210.883419 C504.270652,210.883419 507.11264,208.878498 507.11264,206.119036 C507.11264,203.747625 505.304102,202.324777 501.191828,201.354653 L497.187209,200.384531 C491.56782,199.069474 489.005723,196.353129 489.005723,191.782772 C489.005723,186.24229 493.527071,182.555823 500.30909,182.555823 C506.617445,182.555823 511.224912,186.24229 511.504805,191.480955 L506.811217,191.480955 C506.359083,188.613703 503.861576,186.824365 500.244499,186.824365 C496.43365,186.824365 493.893085,188.656819 493.893085,191.459398 C493.893085,193.679901 495.52938,194.95184 499.577063,195.900406 L503.000368,196.741178 C509.373314,198.228702 512,200.815695 512,205.493846 C512,211.443935 507.392533,215.173518 500.029197,215.173518 C493.139526,215.173518 488.51053,211.6164 488.166045,206.054362 Z" fill="#000000" fill-rule="nonzero"></path></g></svg>

<svg xmlns="http://www.w3.org/2000/svg" width="800" height="800" preserveAspectRatio="xMidYMid" viewBox="0 -101.5 512 512">
  <path d="M120.81 80.56h96.57v7.68h-87.72V146h82.49v7.68h-82.49v63.42h88.72v7.68h-97.57V80.56Zm105.22 0h10.26l45.47 63.42 46.47-63.42L391.44 0 287.6 150.65l53.52 74.13h-10.67l-48.68-67.47-48.9 67.47h-10.45l53.91-74.13-50.3-70.09Zm118.9 7.68v-7.68h110.05v7.68h-50.7v136.54h-8.85V88.24h-50.5ZM0 80.56h11.07l152.58 228.32-63.06-84.1L9.25 91.47l-.4 133.3H0V80.58ZM454.08 214.8c-1.8 0-3.16-1.4-3.16-3.22a3.13 3.13 0 0 1 3.16-3.2c1.83 0 3.17 1.4 3.17 3.2a3.12 3.12 0 0 1-3.17 3.22Zm8.7-8.46h4.74c.06 2.57 1.94 4.3 4.7 4.3 3.07 0 4.81-1.86 4.81-5.33v-21.99h4.83v22.01c0 6.25-3.62 9.85-9.6 9.85-5.62 0-9.48-3.49-9.48-8.84Zm25.39-.28h4.78c.4 2.96 3.29 4.83 7.45 4.83 3.87 0 6.71-2 6.71-4.76 0-2.37-1.8-3.8-5.92-4.77l-4-.97c-5.62-1.31-8.18-4.03-8.18-8.6 0-5.54 4.52-9.22 11.3-9.22 6.3 0 10.91 3.68 11.2 8.92h-4.7c-.45-2.87-2.95-4.66-6.57-4.66-3.8 0-6.35 1.84-6.35 4.64 0 2.22 1.64 3.5 5.69 4.44l3.42.84c6.37 1.49 9 4.08 9 8.75 0 5.95-4.6 9.68-11.97 9.68-6.89 0-11.52-3.55-11.86-9.12Z"/>
</svg>
